logo/mongodb-icon.svg

<?xml version="1.0" encoding="UTF-8"?>
<svg width="256px" height="549px" viewBox="0 0 256 549" version="1.1" xmlns="http://www.w3.org/2000/svg" preserveAspectRatio="xMidYMid">
    <title>MongoDB</title>
    <g>
        <path d="M175.621976,61.1079707 C152.611447,33.8066743 132.796647,6.0788184 128.748652,0.319937648 C128.322413,-0.106645883 127.683054,-0.106645883 127.257028,0.319937648 C123.20882,6.0788184 103.394233,33.8066743 80.383491,61.1079707 C-117.123869,313.004377 111.490649,482.998814 111.490649,482.998814 L113.408086,484.278812 C115.112404,510.512377 119.373732,548.265926 119.373732,548.265926 L127.896173,548.265926 L136.418615,548.265926 C136.418615,548.265926 140.679943,510.72571 142.384474,484.278812 L144.301911,482.785481 C144.514818,482.998814 373.130189,313.004377 175.621976,61.1079707 Z M127.896173,479.158819 C127.896173,479.158819 117.669414,470.414298 114.899498,465.936437 L114.899498,465.507638 L127.257028,191.215955 C127.257028,190.362623 128.535533,190.362623 128.535533,191.215955 L140.892849,465.507638 L140.892849,465.936437 C138.123146,470.414298 127.896173,479.158819 127.896173,479.158819 Z" fill="#01EC64"></path>
    </g>
</svg>

<svg viewBox="0 0 256 549" xmlns="http://www.w3.org/2000/svg"><path fill="#01EC64" d="M175.62 61.1C152.6 33.79 132.79 6.07 128.74.31c-.43-.43-1.07-.43-1.5 0 -4.05 5.75-23.87 33.48-46.88 60.78 -197.51 251.89 31.1 421.89 31.1 421.89l1.91 1.27c1.7 26.23 5.96 63.98 5.96 63.98h8.52 8.52s4.26-37.55 5.96-63.99l1.91-1.5c.21.21 228.82-169.79 31.32-421.68Zm-47.73 418.05s-10.23-8.75-13-13.23v-.43l12.35-274.3c0-.86 1.27-.86 1.27 0l12.35 274.29v.42c-2.77 4.47-13 13.22-13 13.22Z"/></svg>
